Icons/com_socialin_android_photo_picsinphoto_MainPagerActivity.svg

<svg viewBox="0 0 48 48" xmlns:xlink="http://www.w3.org/1999/xlink">
 <defs>
  <linearGradient id="0">
   <stop stop-opacity="0"/>
   <stop offset="1"/>
  </linearGradient>
  <linearGradient xlink:href="#0" id="1" gradientUnits="userSpaceOnUse" gradientTransform="translate(4e-7,-48)" y1="47" x2="0" y2="1"/>
  <clipPath id="2">
   <g transform="translate(0,-1004.3622)">
    <rect rx="4" y="1005.36" x="1" height="46" width="46" fill="#1890d0"/>
   </g>
  </clipPath>
  <clipPath id="3">
   <g transform="translate(0,-1004.3622)">
    <rect rx="4" y="1005.36" x="1" height="46" width="46" fill="#1890d0"/>
   </g>
  </clipPath>
 </defs>
 <g>
  <g transform="translate(0,-1004.3622)">
   <path d="m 5,1006.3622 c -2.216,0 -4,1.784 -4,4 l 0,37.25 c 0,2.216 1.784,4 4,4 l 38,0 c 2.216,0 4,-1.784 4,-4 l 0,-37.25 c 0,-2.216 -1.784,-4 -4,-4 l -38,0 z m -4,41.5 0,0.5 c 0,2.216 1.784,4 4,4 l 38,0 c 2.216,0 4,-1.784 4,-4 l 0,-0.5 c 0,2.216 -1.784,4 -4,4 l -38,0 c -2.216,0 -4,-1.784 -4,-4 z" opacity="0.02"/>
   <path d="m 1,1047.6122 0,0.25 c 0,2.216 1.784,4 4,4 l 38,0 c 2.216,0 4,-1.784 4,-4 l 0,-0.25 c 0,2.216 -1.784,4 -4,4 l -38,0 c -2.216,0 -4,-1.784 -4,-4 z" opacity="0.05"/>
   <rect width="46" height="46" x="1" y="1005.61" rx="4" opacity="0.1"/>
  </g>
 </g>
 <g>
  <g transform="translate(0,-1004.3622)">
   <rect rx="4" y="1005.36" x="1" height="46" width="46" fill="#d86464"/>
  </g>
 </g>
 <g>
  <rect transform="scale(1,-1)" width="46" height="46" x="1" y="-46.998" rx="4" opacity="0.1" fill="url(#1)"/>
 </g>
 <g>
  <g clip-path="url(#2)">
   <g opacity="0.1">
    <g>
     <path d="M 22.535156 11 C 21.800781 11.007812 21.027344 11.464844 20.597656 12.328125 C 20.296875 12.9375 20.214844 13.566406 20.214844 15.167969 C 20.214844 17.253906 20.363281 18.027344 20.726562 17.902344 C 20.835938 17.863281 21.488281 17.285156 22.179688 16.605469 C 24.148438 14.664062 24.769531 13.050781 24.019531 11.835938 C 23.664062 11.261719 23.109375 10.996094 22.535156 11 Z M 26.230469 15.058594 C 25.816406 15.058594 25.351562 15.175781 24.863281 15.410156 C 24.003906 15.820312 21.585938 18.042969 21.78125 18.242188 C 22 18.464844 24.644531 18.71875 25.636719 18.609375 C 26.140625 18.554688 26.785156 18.367188 27.066406 18.191406 C 28.214844 17.46875 28.402344 16.523438 27.574219 15.625 C 27.226562 15.246094 26.765625 15.054688 26.230469 15.058594 Z M 18.246094 18.480469 C 17.722656 18.5 17.1875 18.800781 16.902344 19.371094 C 16.765625 19.652344 16.355469 19.980469 15.988281 20.105469 C 15.625 20.226562 15.046875 20.679688 14.707031 21.105469 L 14.078125 21.878906 L 14.015625 25.921875 C 13.980469 28.144531 14.007812 30.261719 14.078125 30.636719 C 14.210938 31.355469 15.199219 32.453125 15.984375 32.753906 C 16.242188 32.855469 17.050781 32.941406 17.773438 32.941406 L 19.089844 32.941406 L 19.097656 29.089844 C 19.101562 25.480469 19.128906 25.175781 19.570312 24.3125 C 20.265625 22.941406 21.441406 22.191406 23.058594 22.089844 C 24.589844 21.992188 25.542969 22.261719 26.398438 23.03125 C 27.960938 24.449219 28.332031 26.6875 27.324219 28.652344 C 26.855469 29.5625 26.5625 29.851562 25.636719 30.332031 C 24.621094 30.859375 24.367188 30.910156 23.027344 30.816406 L 21.546875 30.710938 L 21.546875 32.925781 L 25.789062 32.984375 C 30.335938 33.042969 31.195312 32.945312 31.945312 32.253906 C 32.9375 31.339844 33 30.988281 33 26.320312 L 33 21.933594 L 32.367188 21.164062 C 31.292969 19.855469 30.9375 19.789062 25.027344 19.789062 L 19.769531 19.789062 L 19.539062 19.269531 C 19.289062 18.71875 18.769531 18.460938 18.246094 18.480469 Z M 30.476562 21.242188 C 30.671875 21.222656 30.871094 21.277344 31.058594 21.433594 C 31.421875 21.738281 31.460938 22.488281 31.121094 22.828125 C 30.75 23.199219 29.972656 23.125 29.746094 22.699219 C 29.390625 22.035156 29.890625 21.300781 30.476562 21.242188 Z M 16.386719 23.5 C 16.496094 23.488281 16.617188 23.496094 16.738281 23.519531 C 16.917969 23.558594 17.066406 23.683594 17.0625 23.796875 C 17.058594 24.082031 16.089844 24.175781 15.925781 23.90625 C 15.808594 23.714844 16.054688 23.535156 16.386719 23.5 Z M 16.167969 24.734375 C 16.761719 24.71875 17.554688 24.855469 17.554688 25.03125 C 17.554688 25.308594 15.683594 25.410156 15.515625 25.140625 C 15.445312 25.019531 15.519531 24.867188 15.683594 24.804688 C 15.796875 24.761719 15.972656 24.738281 16.167969 24.734375 Z M 16.667969 25.953125 C 17.726562 25.953125 18.078125 26.023438 18.015625 26.210938 C 17.925781 26.488281 15.398438 26.699219 15.152344 26.449219 C 14.824219 26.117188 15.324219 25.953125 16.667969 25.953125 Z M 16.535156 27.1875 C 17.152344 27.1875 17.660156 27.28125 17.660156 27.394531 C 17.660156 27.503906 17.152344 27.597656 16.535156 27.597656 C 15.914062 27.597656 15.410156 27.503906 15.410156 27.394531 C 15.410156 27.28125 15.914062 27.1875 16.535156 27.1875 Z M 16.550781 28.421875 C 17.023438 28.421875 17.253906 28.503906 17.203125 28.65625 C 17.121094 28.90625 16.503906 29.023438 16.066406 28.875 C 15.550781 28.703125 15.851562 28.421875 16.550781 28.421875 Z M 16.550781 28.421875 "/>
    </g>
   </g>
  </g>
 </g>
 <g>
  <g clip-path="url(#3)">
   <g transform="translate(0,-1)">
    <g>
     <path d="M 22.535156 11 C 21.800781 11.007812 21.027344 11.464844 20.597656 12.328125 C 20.296875 12.9375 20.214844 13.566406 20.214844 15.167969 C 20.214844 17.253906 20.363281 18.027344 20.726562 17.902344 C 20.835938 17.863281 21.488281 17.285156 22.179688 16.605469 C 24.148438 14.664062 24.769531 13.050781 24.019531 11.835938 C 23.664062 11.261719 23.109375 10.996094 22.535156 11 Z M 26.230469 15.058594 C 25.816406 15.058594 25.351562 15.175781 24.863281 15.410156 C 24.003906 15.820312 21.585938 18.042969 21.78125 18.242188 C 22 18.464844 24.644531 18.71875 25.636719 18.609375 C 26.140625 18.554688 26.785156 18.367188 27.066406 18.191406 C 28.214844 17.46875 28.402344 16.523438 27.574219 15.625 C 27.226562 15.246094 26.765625 15.054688 26.230469 15.058594 Z M 18.246094 18.480469 C 17.722656 18.5 17.1875 18.800781 16.902344 19.371094 C 16.765625 19.652344 16.355469 19.980469 15.988281 20.105469 C 15.625 20.226562 15.046875 20.679688 14.707031 21.105469 L 14.078125 21.878906 L 14.015625 25.921875 C 13.980469 28.144531 14.007812 30.261719 14.078125 30.636719 C 14.210938 31.355469 15.199219 32.453125 15.984375 32.753906 C 16.242188 32.855469 17.050781 32.941406 17.773438 32.941406 L 19.089844 32.941406 L 19.097656 29.089844 C 19.101562 25.480469 19.128906 25.175781 19.570312 24.3125 C 20.265625 22.941406 21.441406 22.191406 23.058594 22.089844 C 24.589844 21.992188 25.542969 22.261719 26.398438 23.03125 C 27.960938 24.449219 28.332031 26.6875 27.324219 28.652344 C 26.855469 29.5625 26.5625 29.851562 25.636719 30.332031 C 24.621094 30.859375 24.367188 30.910156 23.027344 30.816406 L 21.546875 30.710938 L 21.546875 32.925781 L 25.789062 32.984375 C 30.335938 33.042969 31.195312 32.945312 31.945312 32.253906 C 32.9375 31.339844 33 30.988281 33 26.320312 L 33 21.933594 L 32.367188 21.164062 C 31.292969 19.855469 30.9375 19.789062 25.027344 19.789062 L 19.769531 19.789062 L 19.539062 19.269531 C 19.289062 18.71875 18.769531 18.460938 18.246094 18.480469 Z M 30.476562 21.242188 C 30.671875 21.222656 30.871094 21.277344 31.058594 21.433594 C 31.421875 21.738281 31.460938 22.488281 31.121094 22.828125 C 30.75 23.199219 29.972656 23.125 29.746094 22.699219 C 29.390625 22.035156 29.890625 21.300781 30.476562 21.242188 Z M 16.386719 23.5 C 16.496094 23.488281 16.617188 23.496094 16.738281 23.519531 C 16.917969 23.558594 17.066406 23.683594 17.0625 23.796875 C 17.058594 24.082031 16.089844 24.175781 15.925781 23.90625 C 15.808594 23.714844 16.054688 23.535156 16.386719 23.5 Z M 16.167969 24.734375 C 16.761719 24.71875 17.554688 24.855469 17.554688 25.03125 C 17.554688 25.308594 15.683594 25.410156 15.515625 25.140625 C 15.445312 25.019531 15.519531 24.867188 15.683594 24.804688 C 15.796875 24.761719 15.972656 24.738281 16.167969 24.734375 Z M 16.667969 25.953125 C 17.726562 25.953125 18.078125 26.023438 18.015625 26.210938 C 17.925781 26.488281 15.398438 26.699219 15.152344 26.449219 C 14.824219 26.117188 15.324219 25.953125 16.667969 25.953125 Z M 16.535156 27.1875 C 17.152344 27.1875 17.660156 27.28125 17.660156 27.394531 C 17.660156 27.503906 17.152344 27.597656 16.535156 27.597656 C 15.914062 27.597656 15.410156 27.503906 15.410156 27.394531 C 15.410156 27.28125 15.914062 27.1875 16.535156 27.1875 Z M 16.550781 28.421875 C 17.023438 28.421875 17.253906 28.503906 17.203125 28.65625 C 17.121094 28.90625 16.503906 29.023438 16.066406 28.875 C 15.550781 28.703125 15.851562 28.421875 16.550781 28.421875 Z M 16.550781 28.421875 " fill="#ffffff"/>
    </g>
   </g>
  </g>
 </g>
 <g>
  <g transform="translate(0,-1004.3622)">
   <path d="m 1,1043.3622 0,4 c 0,2.216 1.784,4 4,4 l 38,0 c 2.216,0 4,-1.784 4,-4 l 0,-4 c 0,2.216 -1.784,4 -4,4 l -38,0 c -2.216,0 -4,-1.784 -4,-4 z" opacity="0.1"/>
  </g>
 </g>
</svg>

<svg viewBox="0 0 48 48"><defs><linearGradient id="linearGradient3764" x1="1" x2="47" gradientUnits="userSpaceOnUse" gradientTransform="translate(-48.000001,0.00221467)"><stop stop-color="#d45454" stop-opacity="1"/><stop offset="1" stop-color="#d86464" stop-opacity="1"/></linearGradient><clipPath id="clipPath-197110860"><g transform="translate(0,-1004.3622)"><rect rx="4" y="1005.36" x="1" height="46" width="46" fill="#1890d0"/></g></clipPath><clipPath id="clipPath-210751211"><g transform="translate(0,-1004.3622)"><rect rx="4" y="1005.36" x="1" height="46" width="46" fill="#1890d0"/></g></clipPath></defs><g><path d="m 1 43 l 0 0.25 c 0 2.216 1.784 4 4 4 l 38 0 c 2.216 0 4 -1.784 4 -4 l 0 -0.25 c 0 2.216 -1.784 4 -4 4 l -38 0 c -2.216 0 -4 -1.784 -4 -4 z m 0 0.5 l 0 0.5 c 0 2.216 1.784 4 4 4 l 38 0 c 2.216 0 4 -1.784 4 -4 l 0 -0.5 c 0 2.216 -1.784 4 -4 4 l -38 0 c -2.216 0 -4 -1.784 -4 -4 z" opacity="0.02"/><path d="m 1 43.25 l 0 0.25 c 0 2.216 1.784 4 4 4 l 38 0 c 2.216 0 4 -1.784 4 -4 l 0 -0.25 c 0 2.216 -1.784 4 -4 4 l -38 0 c -2.216 0 -4 -1.784 -4 -4 z" opacity="0.05"/><path d="m 1 43 l 0 0.25 c 0 2.216 1.784 4 4 4 l 38 0 c 2.216 0 4 -1.784 4 -4 l 0 -0.25 c 0 2.216 -1.784 4 -4 4 l -38 0 c -2.216 0 -4 -1.784 -4 -4 z" opacity="0.1"/></g><g><rect width="46" height="46" x="-47" y="1" rx="4" transform="matrix(0,-1,1,0,0,0)" fill="url(#linearGradient3764)" fill-opacity="1"/></g><g><g clip-path="url(#clipPath-197110860)"><g opacity="0.1"><!-- color: #d86464 --><g><path d="m 22.535 11 c -0.734 0.008 -1.508 0.465 -1.938 1.328 c -0.301 0.609 -0.383 1.238 -0.383 2.84 c 0 2.086 0.148 2.859 0.512 2.734 c 0.109 -0.039 0.762 -0.617 1.453 -1.297 c 1.969 -1.941 2.59 -3.555 1.84 -4.77 c -0.355 -0.574 -0.91 -0.84 -1.484 -0.836 m 3.695 4.059 c -0.414 0 -0.879 0.117 -1.367 0.352 c -0.859 0.41 -3.277 2.633 -3.082 2.832 c 0.219 0.223 2.863 0.477 3.855 0.367 c 0.504 -0.055 1.148 -0.242 1.43 -0.418 c 1.148 -0.723 1.336 -1.668 0.508 -2.566 c -0.348 -0.379 -0.809 -0.57 -1.344 -0.566 m -7.984 3.422 c -0.523 0.02 -1.059 0.32 -1.344 0.891 c -0.137 0.281 -0.547 0.609 -0.914 0.734 c -0.363 0.121 -0.941 0.574 -1.281 1 l -0.629 0.773 l -0.063 4.04 c -0.035 2.223 -0.008 4.34 0.063 4.715 c 0.133 0.719 1.121 1.816 1.906 2.117 c 0.258 0.102 1.066 0.188 1.789 0.188 l 1.316 0 l 0.008 -3.852 c 0.004 -3.609 0.031 -3.914 0.473 -4.777 c 0.695 -1.371 1.871 -2.121 3.488 -2.223 c 1.531 -0.098 2.484 0.172 3.34 0.941 c 1.563 1.418 1.934 3.656 0.926 5.621 c -0.469 0.91 -0.762 1.199 -1.688 1.68 c -1.016 0.527 -1.27 0.578 -2.609 0.484 l -1.48 -0.105 l 0 2.215 l 4.242 0.059 c 4.547 0.059 5.406 -0.039 6.156 -0.73 c 0.992 -0.914 1.055 -1.266 1.055 -5.934 l 0 -4.387 l -0.633 -0.77 c -1.074 -1.309 -1.43 -1.375 -7.34 -1.375 l -5.258 0 l -0.23 -0.52 c -0.25 -0.551 -0.77 -0.809 -1.293 -0.789 m 12.23 2.762 c 0.195 -0.02 0.395 0.035 0.582 0.191 c 0.363 0.305 0.402 1.055 0.063 1.395 c -0.371 0.371 -1.148 0.297 -1.375 -0.129 c -0.355 -0.664 0.145 -1.398 0.73 -1.457 m -14.09 2.258 c 0.109 -0.012 0.23 -0.004 0.352 0.02 c 0.18 0.039 0.328 0.164 0.324 0.277 c -0.004 0.285 -0.973 0.379 -1.137 0.109 c -0.117 -0.191 0.129 -0.371 0.461 -0.406 m -0.219 1.234 c 0.594 -0.016 1.387 0.121 1.387 0.297 c 0 0.277 -1.871 0.379 -2.039 0.109 c -0.07 -0.121 0.004 -0.273 0.168 -0.336 c 0.113 -0.043 0.289 -0.066 0.484 -0.07 m 0.5 1.219 c 1.059 0 1.41 0.07 1.348 0.258 c -0.09 0.277 -2.617 0.488 -2.863 0.238 c -0.328 -0.332 0.172 -0.496 1.516 -0.496 m -0.133 1.234 c 0.617 0 1.125 0.094 1.125 0.207 c 0 0.109 -0.508 0.203 -1.125 0.203 c -0.621 0 -1.125 -0.094 -1.125 -0.203 c 0 -0.113 0.504 -0.207 1.125 -0.207 m 0.016 1.234 c 0.473 0 0.703 0.082 0.652 0.234 c -0.082 0.25 -0.699 0.367 -1.137 0.219 c -0.516 -0.172 -0.215 -0.453 0.484 -0.453 m 0 0" fill="#000"/></g></g></g></g><g><g clip-path="url(#clipPath-210751211)"><g transform="translate(0,-1)"><!-- color: #d86464 --><g><path d="m 22.535 11 c -0.734 0.008 -1.508 0.465 -1.938 1.328 c -0.301 0.609 -0.383 1.238 -0.383 2.84 c 0 2.086 0.148 2.859 0.512 2.734 c 0.109 -0.039 0.762 -0.617 1.453 -1.297 c 1.969 -1.941 2.59 -3.555 1.84 -4.77 c -0.355 -0.574 -0.91 -0.84 -1.484 -0.836 m 3.695 4.059 c -0.414 0 -0.879 0.117 -1.367 0.352 c -0.859 0.41 -3.277 2.633 -3.082 2.832 c 0.219 0.223 2.863 0.477 3.855 0.367 c 0.504 -0.055 1.148 -0.242 1.43 -0.418 c 1.148 -0.723 1.336 -1.668 0.508 -2.566 c -0.348 -0.379 -0.809 -0.57 -1.344 -0.566 m -7.984 3.422 c -0.523 0.02 -1.059 0.32 -1.344 0.891 c -0.137 0.281 -0.547 0.609 -0.914 0.734 c -0.363 0.121 -0.941 0.574 -1.281 1 l -0.629 0.773 l -0.063 4.04 c -0.035 2.223 -0.008 4.34 0.063 4.715 c 0.133 0.719 1.121 1.816 1.906 2.117 c 0.258 0.102 1.066 0.188 1.789 0.188 l 1.316 0 l 0.008 -3.852 c 0.004 -3.609 0.031 -3.914 0.473 -4.777 c 0.695 -1.371 1.871 -2.121 3.488 -2.223 c 1.531 -0.098 2.484 0.172 3.34 0.941 c 1.563 1.418 1.934 3.656 0.926 5.621 c -0.469 0.91 -0.762 1.199 -1.688 1.68 c -1.016 0.527 -1.27 0.578 -2.609 0.484 l -1.48 -0.105 l 0 2.215 l 4.242 0.059 c 4.547 0.059 5.406 -0.039 6.156 -0.73 c 0.992 -0.914 1.055 -1.266 1.055 -5.934 l 0 -4.387 l -0.633 -0.77 c -1.074 -1.309 -1.43 -1.375 -7.34 -1.375 l -5.258 0 l -0.23 -0.52 c -0.25 -0.551 -0.77 -0.809 -1.293 -0.789 m 12.23 2.762 c 0.195 -0.02 0.395 0.035 0.582 0.191 c 0.363 0.305 0.402 1.055 0.063 1.395 c -0.371 0.371 -1.148 0.297 -1.375 -0.129 c -0.355 -0.664 0.145 -1.398 0.73 -1.457 m -14.09 2.258 c 0.109 -0.012 0.23 -0.004 0.352 0.02 c 0.18 0.039 0.328 0.164 0.324 0.277 c -0.004 0.285 -0.973 0.379 -1.137 0.109 c -0.117 -0.191 0.129 -0.371 0.461 -0.406 m -0.219 1.234 c 0.594 -0.016 1.387 0.121 1.387 0.297 c 0 0.277 -1.871 0.379 -2.039 0.109 c -0.07 -0.121 0.004 -0.273 0.168 -0.336 c 0.113 -0.043 0.289 -0.066 0.484 -0.07 m 0.5 1.219 c 1.059 0 1.41 0.07 1.348 0.258 c -0.09 0.277 -2.617 0.488 -2.863 0.238 c -0.328 -0.332 0.172 -0.496 1.516 -0.496 m -0.133 1.234 c 0.617 0 1.125 0.094 1.125 0.207 c 0 0.109 -0.508 0.203 -1.125 0.203 c -0.621 0 -1.125 -0.094 -1.125 -0.203 c 0 -0.113 0.504 -0.207 1.125 -0.207 m 0.016 1.234 c 0.473 0 0.703 0.082 0.652 0.234 c -0.082 0.25 -0.699 0.367 -1.137 0.219 c -0.516 -0.172 -0.215 -0.453 0.484 -0.453 m 0 0" fill="#fff"/></g></g></g></g><g><g transform="translate(0,-1004.3622)"><path d="m 1 1043.36 0 4 c 0 2.216 1.784 4 4 4 l 38 0 c 2.216 0 4 -1.784 4 -4 l 0 -4 c 0 2.216 -1.784 4 -4 4 l -38 0 c -2.216 0 -4 -1.784 -4 -4 z" opacity="0.1"/></g></g></svg>
